logos/play.svg

<?xml version="1.0" encoding="UTF-8" standalone="no"?>
<svg width="512px" height="266px" viewBox="0 0 512 266" version="1.1" xmlns="http://www.w3.org/2000/svg" xmlns:xlink="http://www.w3.org/1999/xlink" preserveAspectRatio="xMidYMid">
	<g>
		<path d="M7.5326226,14.6285714 L14.3010661,7.86012793 C24.6720682,-2.40170576 41.593177,-1.7466951 51.0908316,9.2793177 L144.757356,118.447761 C152.944989,127.945416 152.835821,142.028145 144.539019,151.416631 L51.2,257.200853 C41.593177,268.008529 24.8904051,268.554371 14.6285714,258.292537 L7.86012793,251.524094 C-1.31002132,242.353945 -1.96503198,227.725373 6.33176972,217.681876 L62.2260128,150.652452 C69.8678038,141.482303 69.9769723,128.272921 62.5535181,118.884435 L5.78592751,47.9249467 C-2.29253731,38.0997868 -1.52835821,23.6895522 7.5326226,14.6285714 L7.5326226,14.6285714 Z" fill="#92D13D"></path>
		<path d="M62.1168443,150.870789 L6.22260128,217.900213 C-2.07420043,227.834542 -1.41918977,242.572281 7.75095949,251.742431 L14.519403,258.510874 C24.7812367,268.772708 41.4840085,268.226866 51.0908316,257.41919 L71.2869936,234.493817 C78.9287846,219.428571 83.1863539,202.398294 83.1863539,184.385501 C83.1863539,162.115139 76.6362473,141.482303 65.5010661,124.12452 C69.649467,132.639659 68.5577825,143.228998 62.1168443,150.870789 L62.1168443,150.870789 Z" fill="#49691F"></path>
		<path d="M192.791471,214.515991 L171.066951,214.515991 L171.066951,88.2081023 L192.791471,88.2081023 L192.791471,101.417484 C195.848188,92.5748401 206.8742,86.2430704 221.939446,86.2430704 C234.821322,86.2430704 245.628998,90.828145 254.362473,99.9982942 C263.205117,109.059275 267.571855,120.303625 267.571855,133.840512 C267.571855,147.377399 263.205117,158.621748 254.362473,167.901066 C245.628998,176.962047 234.821322,181.437953 221.939446,181.437953 C206.8742,181.437953 195.848188,175.106183 192.791471,166.263539 L192.791471,214.515991 L192.791471,214.515991 Z M199.123241,113.971855 C193.883156,119.21194 191.153945,125.980384 191.153945,133.94968 C191.153945,141.918977 193.883156,148.578252 199.123241,153.927505 C204.581663,159.167591 211.240938,161.896802 219.101066,161.896802 C226.961194,161.896802 233.183795,159.167591 238.314712,153.927505 C243.554797,148.68742 246.065672,141.918977 246.065672,133.94968 C246.065672,125.980384 243.554797,119.321109 238.314712,113.971855 C233.292964,108.73177 226.852026,106.002559 219.101066,106.002559 C211.350107,106.002559 204.581663,108.73177 199.123241,113.971855 L199.123241,113.971855 Z M275.104478,53.2742004 L296.828998,53.2742004 L296.828998,149.669936 C296.828998,158.51258 299.776546,162.333475 307.745842,162.333475 C310.256716,162.333475 312.440085,162.115139 314.295949,161.569296 L314.295949,181.001279 C311.785075,181.765458 308.291684,182.092964 303.924947,182.092964 C284.711301,182.092964 275.104478,172.267804 275.104478,152.508316 L275.104478,53.2742004 L275.104478,53.2742004 Z M387.87548,101.417484 L387.87548,88.2081023 L409.6,88.2081023 L409.6,151.962473 C409.6,159.713433 411.455864,162.660981 416.259275,162.660981 C417.569296,162.660981 419.206823,162.442644 420.84435,162.333475 L420.84435,179.909595 C418.442644,180.782942 414.840085,181.328785 410.145842,181.328785 C404.905757,181.328785 400.757356,180.455437 397.482303,178.381237 C393.44307,175.652026 390.932196,172.049467 390.058849,167.355224 C383.727079,176.962047 373.246908,181.65629 358.727505,181.65629 C345.845629,181.65629 335.037953,177.180384 326.086141,167.901066 C317.352665,158.621748 312.985928,147.377399 312.985928,133.840512 C312.985928,120.303625 317.352665,109.059275 326.086141,99.9982942 C334.928785,90.7189765 345.845629,86.2430704 358.727505,86.2430704 C373.356077,86.2430704 384.38209,92.793177 387.87548,101.417484 L387.87548,101.417484 Z M381.325373,153.818337 C386.783795,148.578252 389.513006,141.809808 389.513006,133.840512 C389.513006,125.871215 386.783795,119.21194 381.325373,113.862687 C376.085288,108.622601 369.316844,105.89339 361.565885,105.89339 C353.814925,105.89339 347.483156,108.622601 342.133902,113.862687 C337.112154,119.102772 334.492111,125.871215 334.492111,133.840512 C334.492111,141.809808 337.002985,148.469083 342.133902,153.818337 C347.373987,159.058422 353.705757,161.787633 361.565885,161.787633 C369.426013,161.787633 376.085288,159.058422 381.325373,153.818337 L381.325373,153.818337 Z M428.376972,197.81322 C431.106183,198.686567 434.490405,199.232409 438.529638,199.232409 C442.023028,199.232409 444.533902,198.46823 446.498934,197.267377 C448.463966,196.066525 450.319829,193.228145 451.739019,189.516418 L454.140725,182.966311 L415.93177,88.2081023 L437.765458,88.2081023 L464.620896,157.09339 L489.838806,88.2081023 L511.781663,88.2081023 L470.843497,194.428998 C468.114286,201.524947 464.839232,206.983369 461.018337,210.695096 C455.559915,215.716844 448.354797,218.336887 439.07548,218.336887 C435.036247,218.336887 431.433689,217.791045 428.376972,216.917697 L428.376972,197.81322 L428.376972,197.81322 Z" fill="#49691F"></path>
	</g>
</svg>

<svg preserveAspectRatio="xMidYMid" viewBox="0 0 512 266" xmlns="http://www.w3.org/2000/svg">
  <path fill="#92D13D" d="M7.533 14.629 14.3 7.86C24.671-2.402 41.592-1.747 51.09 9.28l93.666 109.168c8.188 9.497 8.079 23.58-.218 32.969L51.2 257.2c-9.607 10.808-26.31 11.353-36.571 1.092l-6.769-6.769c-9.17-9.17-9.825-23.799-1.528-33.842l55.894-67.03c7.642-9.17 7.751-22.38.328-31.768L5.786 47.924C-2.293 38.1-1.528 23.69 7.533 14.63Z"/>
  <path fill="#49691F" d="M62.117 150.87 6.223 217.9c-8.297 9.935-7.642 24.672 1.528 33.842l6.768 6.769c10.262 10.262 26.965 9.716 36.572-1.092l20.196-22.925c7.642-15.065 11.9-32.096 11.9-50.108 0-22.27-6.55-42.904-17.686-60.261 4.148 8.515 3.057 19.104-3.384 26.746Z"/>
  <path fill="#49691F" d="M192.791 214.516h-21.724V88.208h21.724v13.21c3.057-8.843 14.083-15.175 29.148-15.175 12.882 0 23.69 4.585 32.423 13.755 8.843 9.061 13.21 20.306 13.21 33.843 0 13.536-4.367 24.78-13.21 34.06-8.733 9.061-19.54 13.537-32.423 13.537-15.065 0-26.09-6.332-29.148-15.174v48.252Zm6.332-100.544c-5.24 5.24-7.97 12.008-7.97 19.978 0 7.969 2.73 14.628 7.97 19.978 5.459 5.24 12.118 7.969 19.978 7.969 7.86 0 14.083-2.73 19.214-7.97 5.24-5.24 7.75-12.008 7.75-19.977 0-7.97-2.51-14.629-7.75-19.978-5.022-5.24-11.463-7.97-19.214-7.97-7.75 0-14.52 2.73-19.978 7.97Zm75.981-60.698h21.725v96.396c0 8.843 2.948 12.663 10.917 12.663 2.51 0 4.694-.218 6.55-.764v19.432c-2.51.764-6.004 1.092-10.371 1.092-19.214 0-28.82-9.825-28.82-29.585V53.274Zm112.771 48.143V88.208H409.6v63.754c0 7.751 1.856 10.699 6.66 10.699 1.31 0 2.947-.218 4.584-.328v17.577c-2.401.873-6.004 1.419-10.698 1.419-5.24 0-9.389-.874-12.664-2.948-4.039-2.729-6.55-6.332-7.423-11.026-6.332 9.607-16.812 14.301-31.331 14.301-12.882 0-23.69-4.476-32.642-13.755-8.733-9.28-13.1-20.524-13.1-34.06 0-13.537 4.367-24.782 13.1-33.843 8.843-9.279 19.76-13.755 32.642-13.755 14.628 0 25.654 6.55 29.147 15.174Zm-6.55 52.401c5.459-5.24 8.188-12.008 8.188-19.977 0-7.97-2.73-14.63-8.188-19.978-5.24-5.24-12.008-7.97-19.76-7.97-7.75 0-14.082 2.73-19.431 7.97-5.022 5.24-7.642 12.008-7.642 19.978 0 7.969 2.511 14.628 7.642 19.977 5.24 5.24 11.572 7.97 19.432 7.97 7.86 0 14.52-2.73 19.76-7.97Zm47.052 43.995c2.73.874 6.113 1.42 10.153 1.42 3.493 0 6.004-.765 7.969-1.966 1.965-1.2 3.82-4.039 5.24-7.75l2.402-6.55-38.21-94.759h21.834l26.856 68.885 25.218-68.885h21.943L470.843 194.43c-2.729 7.096-6.004 12.554-9.825 16.266-5.458 5.022-12.663 7.642-21.943 7.642-4.039 0-7.641-.546-10.698-1.42v-19.104Z"/>
</svg>
